frontend/public/svg/pilgrim_shell_bw.svg

<svg xmlns="http://www.w3.org/2000/svg" width="1536" height="1024" viewBox="0 0 1536 1024"><rect width="100%" height="100%" fill="#fff"/><path d="m1208 324-44-25-374 391 357-402-45-60-81 130 118-91-415 464 357-521-64-30-84 169 50-189-69-8-36 120-1-138h-75l-24 82-55-83-38 152-28-120-66 6 25 157-50-126-63 24 104 160 17 345-137-482-57 36 97 77 82 323-156-342-83 2 117 87 114 304-236-367-39 43 121 63 114 201-227-239-29 45 155 112-160-55 156 150-45 109 425 82 394-303-30-41-360 164 378-184-10-55-399 244 417-270-21-56-431 340Z"/><path d="m616 510 2 32-2 1v8l4 35-1 17 2 69h2v-17l3-1v-15l-2-1v-2l3-1v-3l-4-1v-3l3-1v-3l-3-1v-11l3-4-7-89-1-9Zm471-118-3 1-16 18-1 3-44 46-1 4h2l64-66ZM858 578h-2l-44 51-8 10v2l-5 2-5 9h3l4-4 2-6 3-1 9-9 2-4 18-19 14-18v-2l9-9Zm142-186h-2v2l-3 2-19 29-9 11-4 8-5 4-2 5h2l3-3 2-5 4-3 17-22Zm15 6-4-1-2 3-6 1-4 6v2h2l1 3-3 3-1 5 4-2 13-18ZM558 605l1 4 2 1v4l7 18 1 8 3 3 2 10h2v-8l-12-31-3-3-1-6Zm384 233-41 4v2l9-1 1 5h5l-2-5 8-1 1 5h2l1-5 16-2Zm139-421h-2l-13 13-2 5-4 1-7 8v2h2l9-9v-2l3-1 14-15Zm-29 401-48 3v2l5 1 7-2 36-2ZM518 412l6 16 3 3 6 14h2v-3l-15-30Zm-37 416-41 6v2l26-3 15-3Zm509 11-46 5v2l46-5Zm-343 8-32 4v2h10l4-2 9 1 1-2 8-1Z"/></svg>

<svg xmlns="http://www.w3.org/2000/svg" width="1536" height="1024" viewBox="0 0 1536 1024">
<rect width="100%" height="100%" fill="white"/>
<g fill="#000000" stroke="none">
  <path d="M1208,324 L1164,299 L790,690 L1147,288 L1102,228 L1021,358 L1139,267 L724,731 L1081,210 L1017,180 L933,349 L983,160 L914,152 L878,272 L877,134 L802,134 L778,216 L723,133 L685,285 L657,165 L591,171 L616,328 L566,202 L503,226 L607,386 L624,731 L487,249 L430,285 L527,362 L609,685 L453,343 L370,345 L487,432 L601,736 L365,369 L326,412 L447,475 L561,676 L334,437 L305,482 L460,594 L300,539 L456,689 L411,798 L836,880 L1230,577 L1200,536 L840,700 L1218,516 L1208,461 L809,705 L1226,435 L1205,379 L774,719 Z"/>
  <path d="M616,510 L618,542 L616,543 L616,551 L620,586 L619,603 L621,672 L623,672 L623,655 L626,654 L626,639 L624,638 L624,636 L627,635 L627,632 L623,631 L623,628 L626,627 L626,624 L623,623 L623,612 L626,608 L619,519 L618,510 Z"/>
  <path d="M1087,392 L1084,393 L1068,411 L1067,414 L1023,460 L1022,464 L1024,464 L1088,398 Z"/>
  <path d="M858,578 L856,578 L812,629 L804,639 L804,641 L799,643 L794,652 L797,652 L801,648 L803,642 L806,641 L815,632 L817,628 L835,609 L849,591 L849,589 L858,580 Z"/>
  <path d="M1000,392 L998,392 L998,394 L995,396 L976,425 L967,436 L963,444 L958,448 L956,453 L958,453 L961,450 L963,445 L967,442 L984,420 Z"/>
  <path d="M1015,398 L1011,397 L1009,400 L1003,401 L999,407 L999,409 L1001,409 L1002,412 L999,415 L998,420 L1002,418 L1015,400 Z"/>
  <path d="M558,605 L559,609 L561,610 L561,614 L568,632 L569,640 L572,643 L574,653 L576,653 L576,645 L564,614 L561,611 L560,605 Z"/>
  <path d="M942,838 L901,842 L901,844 L910,843 L911,848 L916,848 L914,843 L922,842 L923,847 L925,847 L926,842 L942,840 Z"/>
  <path d="M1081,417 L1079,417 L1066,430 L1064,435 L1060,436 L1053,444 L1053,446 L1055,446 L1064,437 L1064,435 L1067,434 L1081,419 Z"/>
  <path d="M1052,818 L1004,821 L1004,823 L1009,824 L1016,822 L1052,820 Z"/>
  <path d="M518,412 L524,428 L527,431 L533,445 L535,445 L535,442 L520,412 Z"/>
  <path d="M481,828 L440,834 L440,836 L466,833 L481,830 Z"/>
  <path d="M990,839 L944,844 L944,846 L990,841 Z"/>
  <path d="M647,847 L615,851 L615,853 L625,853 L629,851 L638,852 L639,850 L647,849 Z"/>
</g>
</svg>
